X:1
T:Builder of Ages
T:Builder of Ages
T:William Fiske Sherwin, 1877
T:Richard W. Adams, 2004
T:© 2004 Richard W. Adams. Reproduce or publish freely for Christian worship or devotions. Courtesy of the Cyber Hymnal™
C:William Fiske Sherwin, 1877
Z:© 2004 Richard W. Adams. Reproduce or publish freely for Christian worship or devotions.
Z:Courtesy of the Cyber Hymnal™
%%score ( 1 2 ) 3
L:1/8
Q:1/4=115
M:4/4
K:Eb
V:1 treble 
V:2 treble 
V:3 bass 
V:1
 [EG]4 [B,E]2 [EG]2 | [EB]3 [Ec] [EB]4 | [EG]4 [B,E]2 [EG]2 | [DF]8 | [EG]4 [B,E]2 [EG]2 | %5
w: 1.~Build- er of|a- ~- ges,|plan- ner di-|vine,|Draw- ing the|
w: 2.~Sur- vey- or,|ar- chi- tect,|crafts- man sub-|lime,|He drew the|
w: 3.~First came the|cor- ner- stone,|Je- sus, our|Lord;|We hear this|
w: 4.~“As you are|ga- thered here,|so here am|I,|Lift up your|
w: 5.~So, in this|year to come,|we vow to|build|Two things for|
 [EB]2 [Ec]2 [EB]2 [Ec]2 | [Fd]4 [Ec]4 | [DB]8 | [DF]4 [EG]2 [FA]2 | [Ac]2 [GB]2 [EG]4 | %10
w: length and breadth of|space and|time;|Yet al- so|Mon- arch with|
w: blue- print ere the|start of|time,|Build- ing with|liv- ing stones|
w: might- y Rock call|from the|Word:|“Build up My|Church,” said He,|
w: hearts and song un-|to the|sky;|Call in My|ci- ti- zens,|
w: Christ our king, with|spir- it|filled:|First, we will|make a house,|
 [FB]4 [Fc]2 [Fc]2 | d8 | [Ge]4 [GB]2 [EG]2 | [EF]2 [EA]2 [Ec]2 [EA]2 | [EF]4 [DB]4 | E8 |] %16
w: king- dom to|build,|And gold- en|cap- i- tal still|yet un-|filled.|
w: fair tem- ples|bright,|Fix- ing our|hearts in- to His|halls of|light.|
w: “it can- not|fail;|As long as|you be- lieve, you|will pre-|vail.”|
w: do not de-|lay;|Bring in My|king- dom of the|per- fect|day.”|
w: fit for a|King;|And build with-|in our- selves hearts|fit to|sing.|
V:2
 x8 | x8 | x8 | x8 | x8 | x8 | x8 | x8 | x8 | x8 | x8 | (F4 A4) | x8 | x8 | x8 | E8 |] %16
V:3
 [E,B,]4 [E,G,]2 [E,B,]2 | [E,G,]3 [A,,A,] [E,G,]4 | [E,B,]4 [E,G,]2 [E,B,]2 | [B,,B,]8 | %4
 [E,B,]4 [E,G,]2 [E,B,]2 | [E,G,]2 [A,,A,]2 [E,G,]2 [G,B,]2 | [F,B,]4 [F,=A,]4 | [B,,B,]8 | %8
 [A,B,]4 [G,B,]2 [F,C]2 | [E,E]2 [E,E]2 [E,B,]4 | [D,B,]4 [C,=A,]2 [C,A,]2 | [B,,B,]8 | %12
 [E,B,]4 [E,E]2 [E,B,]2 | [A,,C]2 [A,,C]2 [A,,A,]2 [A,,C]2 | [B,,B,]4 [B,,A,]4 | [E,G,]8 |] %16

